X:22
T:Kendal Gill(Ghyll). JaW.022
T:Thomas & ?Snadeor?. JaW.022
M:6/8
L:1/8
Q:3/8=120
C:”Thomas & ?Snadeor?”
S:James Winder Ms, Lancashire, 1835-41
R:.Jig
O:England
A:Wyresdale,Lancashire
N:C# in bar 2 in other versions. Illegible alternative title. CGP..
Z:vmp.Chris Partington, Aug 2004
K:G
“Key as in MS”d2e f2g|fed cBA|d2e f2g|agf gfe|!
d3 def|A3 AGF|G2B A2G|AFD D3:|!
|:F3 A3|cBA cBA|G3 B3|dcB dcB|!
F3 A3|cBA cBA|”unclear in MS”G2A B2G|FDD D3:|

